src/components/LoginModal/images/samsung-blockchain-wallet.svg

<?xml version="1.0" encoding="utf-8"?>
<!-- Generator: Adobe Illustrator 16.0.0, SVG Export Plug-In . SVG Version: 6.00 Build 0)  -->
<!DOCTYPE svg PUBLIC "-//W3C//DTD SVG 1.1//EN" "http://www.w3.org/Graphics/SVG/1.1/DTD/svg11.dtd">
<svg version="1.1" id="Layer_1" xmlns="http://www.w3.org/2000/svg" xmlns:xlink="http://www.w3.org/1999/xlink" x="0px" y="0px"
	 width="300px" height="300px" viewBox="0 0 300 300" enable-background="new 0 0 300 300" xml:space="preserve">
<g>
	<path fill="#1E4BC6" d="M297.462,105.461c-3.694-27.859-13.55-53.112-30.941-71.601h-0.006
		c-18.491-17.39-43.737-27.25-71.597-30.941c-26.609-3.523-44.729-2.659-44.729-2.659s-18.119-0.864-44.729,2.659
		c-27.865,3.692-53.109,13.552-71.6,30.941h-0.003C16.469,52.35,6.61,77.603,2.914,105.461c-3.526,26.607-2.649,44.73-2.649,44.73
		s-0.877,18.116,2.649,44.729c3.696,27.859,13.555,53.105,30.944,71.599l0.003,0.004c18.491,17.386,43.735,27.247,71.6,30.938
		c26.61,3.526,44.729,2.658,44.729,2.658s18.119,0.868,44.729-2.658c27.859-3.691,53.105-13.553,71.597-30.938l0.006-0.004
		c17.392-18.493,27.247-43.739,30.941-71.599c3.523-26.612,2.655-44.729,2.655-44.729S300.985,132.069,297.462,105.461"/>
	<path fill="#FFFFFF" d="M233.959,176.377v-52.373c6.474-2.948,10.98-9.458,10.98-17.034c0-10.339-8.382-18.723-18.722-18.723
		c-3.839,0-7.404,1.16-10.375,3.14l-46.731-26.979c0.015-0.318,0.047-0.632,0.047-0.956c0-10.34-8.382-18.723-18.724-18.723
		c-10.34,0-18.723,8.383-18.723,18.723c0,0.242,0.027,0.477,0.037,0.718l-46.764,27c-2.898-1.842-6.326-2.923-10.015-2.923
		c-10.34,0-18.723,8.383-18.723,18.723c0,7.287,4.172,13.584,10.247,16.679v53.081c-6.075,3.096-10.247,9.393-10.247,16.681
		c0,10.339,8.383,18.718,18.723,18.718c3.688,0,7.114-1.079,10.012-2.92l46.767,27.002c-0.011,0.24-0.037,0.477-0.037,0.718
		c0,10.34,8.383,18.722,18.723,18.722c10.342,0,18.724-8.382,18.724-18.722c0-0.321-0.032-0.638-0.047-0.957l46.734-26.979
		c2.968,1.979,6.536,3.137,10.372,3.137c10.34,0,18.722-8.379,18.722-18.718C244.939,185.832,240.433,179.323,233.959,176.377z
		 M207.49,193.411c0,0.823,0.071,1.631,0.174,2.425l-45.68,26.373c-3.183-2.501-7.188-4.004-11.55-4.004
		c-4.445,0-8.524,1.556-11.734,4.146l-45.246-26.124c0.141-0.922,0.235-1.855,0.235-2.815c0-7.864-4.851-14.583-11.719-17.357
		v-51.728c6.868-2.772,11.719-9.493,11.719-17.355c0-0.959-0.095-1.894-0.235-2.814l45.247-26.124
		c3.21,2.587,7.288,4.144,11.732,4.144c4.362,0,8.367-1.503,11.547-4.005l45.683,26.375c-0.103,0.796-0.174,1.601-0.174,2.424
		c0,7.576,4.51,14.085,10.984,17.033v52.374C212,179.323,207.49,185.832,207.49,193.411z"/>
	<path fill-rule="evenodd" clip-rule="evenodd" fill="#45D2F9" d="M169.342,139.168c0-10.352-8.394-18.75-18.748-18.75
		c-10.358,0-18.754,8.398-18.754,18.75c0,7.43,4.331,13.826,10.594,16.862v23.929h16.318V156.03
		C165.013,152.994,169.342,146.599,169.342,139.168"/>
</g>
</svg>

<?xml version="1.0" encoding="UTF-8" standalone="no"?>
<!DOCTYPE svg PUBLIC "-//W3C//DTD SVG 1.1//EN" "http://www.w3.org/Graphics/SVG/1.1/DTD/svg11.dtd">
<svg width="100%" height="100%" viewBox="0 0 300 300" version="1.1" xmlns="http://www.w3.org/2000/svg" xmlns:xlink="http://www.w3.org/1999/xlink" xml:space="preserve" xmlns:serif="http://www.serif.com/" style="fill-rule:evenodd;clip-rule:evenodd;stroke-linejoin:round;stroke-miterlimit:2;">
    <g transform="matrix(0.766553,0,0,0.766553,35.0615,35.0613)">
        <path d="M297.462,105.461C293.768,77.602 283.912,52.349 266.521,33.86L266.515,33.86C248.024,16.47 222.778,6.61 194.918,2.919C168.309,-0.604 150.189,0.26 150.189,0.26C150.189,0.26 132.07,-0.604 105.46,2.919C77.595,6.611 52.351,16.471 33.86,33.86L33.857,33.86C16.469,52.35 6.61,77.603 2.914,105.461C-0.612,132.068 0.265,150.191 0.265,150.191C0.265,150.191 -0.612,168.307 2.914,194.92C6.61,222.779 16.469,248.025 33.858,266.519L33.861,266.523C52.352,283.909 77.596,293.77 105.461,297.461C132.071,300.987 150.19,300.119 150.19,300.119C150.19,300.119 168.309,300.987 194.919,297.461C222.778,293.77 248.024,283.908 266.516,266.523L266.522,266.519C283.914,248.026 293.769,222.78 297.463,194.92C300.986,168.308 300.118,150.191 300.118,150.191C300.118,150.191 300.985,132.069 297.462,105.461" style="fill:rgb(30,75,198);fill-rule:nonzero;"/>
        <path d="M233.959,176.377L233.959,124.004C240.433,121.056 244.939,114.546 244.939,106.97C244.939,96.631 236.557,88.247 226.217,88.247C222.378,88.247 218.813,89.407 215.842,91.387L169.111,64.408C169.126,64.09 169.158,63.776 169.158,63.452C169.158,53.112 160.776,44.729 150.434,44.729C140.094,44.729 131.711,53.112 131.711,63.452C131.711,63.694 131.738,63.929 131.748,64.17L84.984,91.17C82.086,89.328 78.658,88.247 74.969,88.247C64.629,88.247 56.246,96.63 56.246,106.97C56.246,114.257 60.418,120.554 66.493,123.649L66.493,176.73C60.418,179.826 56.246,186.123 56.246,193.411C56.246,203.75 64.629,212.129 74.969,212.129C78.657,212.129 82.083,211.05 84.981,209.209L131.748,236.211C131.737,236.451 131.711,236.688 131.711,236.929C131.711,247.269 140.094,255.651 150.434,255.651C160.776,255.651 169.158,247.269 169.158,236.929C169.158,236.608 169.126,236.291 169.111,235.972L215.845,208.993C218.813,210.972 222.381,212.13 226.217,212.13C236.557,212.13 244.939,203.751 244.939,193.412C244.939,185.832 240.433,179.323 233.959,176.377ZM207.49,193.411C207.49,194.234 207.561,195.042 207.664,195.836L161.984,222.209C158.801,219.708 154.796,218.205 150.434,218.205C145.989,218.205 141.91,219.761 138.7,222.351L93.454,196.227C93.595,195.305 93.689,194.372 93.689,193.412C93.689,185.548 88.838,178.829 81.97,176.055L81.97,124.327C88.838,121.555 93.689,114.834 93.689,106.972C93.689,106.013 93.594,105.078 93.454,104.158L138.701,78.034C141.911,80.621 145.989,82.178 150.433,82.178C154.795,82.178 158.8,80.675 161.98,78.173L207.663,104.548C207.56,105.344 207.489,106.149 207.489,106.972C207.489,114.548 211.999,121.057 218.473,124.005L218.473,176.379C212,179.323 207.49,185.832 207.49,193.411Z" style="fill:white;fill-rule:nonzero;"/>
        <path d="M169.342,139.168C169.342,128.816 160.948,120.418 150.594,120.418C140.236,120.418 131.84,128.816 131.84,139.168C131.84,146.598 136.171,152.994 142.434,156.03L142.434,179.959L158.752,179.959L158.752,156.03C165.013,152.994 169.342,146.599 169.342,139.168" style="fill:rgb(69,210,249);"/>
    </g>
</svg>
